X: 6433
T: Castlebar Races, The
R: jig
M: 6/8
K: Gmajor
|:a|gdc BcA|GAB d2a|gdc BcA|GBd e2a|
gdc BcA|GAB def|gfe fdB|ABd e2:|
|:a|gfg bag|fef def|~g3 bag|fef e2d|
~g3 bag|fef def|gfe fdB|ABd e2:|

